X: 1
T: Miss Admiral Gordon's
M: 4/4
L: 1/8
R: strathspey
K: Gmaj
D |: G/G/G G>G G>D G<e | d<BA>G  E2 E>D | G/G/G G>G G>D G<e | d>e g<B d2 de  |
d>e g<B d<BA>G | A>B c/B/A/G/ E2 E>D | G/G/G G>G G>D G<e | d<B A>B G2 G D:|
|: B>dd>d e>dG>A | B>d c/B/A/G/ E2 ED | B>dg>d E>DG>A | B>c d/e/f/g/  d2 de|
g>fe>d e>dc>B | AB c/B/A/G/ E2 E>D | G/G/G G>G G>D G<e | d<B A>B G2 G D :|
